logo/datocms.svg

<?xml version="1.0" encoding="UTF-8"?>
<svg width="512px" height="158px" viewBox="0 0 512 158" version="1.1" xmlns="http://www.w3.org/2000/svg" xmlns:xlink="http://www.w3.org/1999/xlink">
    <title>Group</title>
    <defs>
        <linearGradient x1="0%" y1="49.9993686%" x2="100%" y2="49.9993686%" id="linearGradient-1">
            <stop stop-color="#FF593D" offset="0%"></stop>
            <stop stop-color="#FF7751" offset="100%"></stop>
        </linearGradient>
    </defs>
    <g stroke="none" stroke-width="1" fill="none" fill-rule="evenodd">
        <g fill-rule="nonzero">
            <path d="M77.0364465,1.65257119 L0,1.65257119 L0,156.714266 L77.0364465,156.714266 C115.56446,156.714266 154.070935,122.000481 154.070935,79.1941876 C154.070935,36.3878945 115.56446,1.65257119 77.0364465,1.65257119 Z M77.0364465,114.413153 C57.5793235,114.405572 41.8122446,98.6265115 41.8194515,79.1693882 C41.8266634,59.712265 57.605431,43.9448931 77.0625543,43.951739 C96.5196777,43.9585893 112.287343,59.7370641 112.280858,79.1941876 C112.280858,88.5394066 108.567493,97.5016475 101.957039,104.107328 C95.3465845,110.713008 86.3816627,114.420417 77.0364465,114.413153 Z" fill="url(#linearGradient-1)"></path>
            <path d="M233.110439,1.67998351 C256.297344,1.67998351 268.190374,15.7366287 268.190374,35.0799353 L268.190374,52.3790662 C268.190374,71.7204148 256.297344,85.77706 233.110439,85.77706 L196.348562,85.77706 L196.348562,1.67998351 L233.110439,1.67998351 Z M247.52736,34.96637 C247.52736,24.2755659 241.880423,18.6286283 229.38628,18.6286283 L216.892137,18.6286283 L216.892137,68.8362473 L229.38628,68.8362473 C241.880423,68.8362473 247.52736,63.1893098 247.52736,52.4985056 L247.52736,34.96637 Z M332.194221,70.1657448 L301.799834,70.1657448 L297.114286,85.7848921 L276.451272,85.7848921 L306.483425,1.67998351 L327.63007,1.67998351 L357.664181,85.77706 L336.999209,85.77706 L332.194221,70.1657448 Z M306.845659,53.5871663 L327.148397,53.5871663 L317.056748,20.3105698 L306.845659,53.5871663 Z M422.997526,1.67998351 L422.997526,19.1063859 L400.284462,19.1063859 L400.284462,85.77706 L379.627322,85.77706 L379.627322,19.1005118 L356.914258,19.1005118 L356.914258,1.67998351 L422.997526,1.67998351 Z M473.015217,87.4590016 C447.547215,87.4590016 434.451959,71.1193018 434.451959,49.1346225 L434.451959,38.322421 C434.451959,16.3377417 447.547215,0 473.015217,0 C498.483218,0 511.588265,16.3377417 511.588265,38.322421 L511.588265,49.1346225 C511.580432,71.1193018 498.485176,87.4590016 473.015217,87.4590016 L473.015217,87.4590016 Z M473.015217,17.1777335 C461.002747,17.1777335 455.114973,25.229123 455.114973,37.2415924 L455.114973,50.2154511 C455.114973,62.2298786 461.002747,70.2793101 473.015217,70.2793101 C485.027686,70.2793101 490.91546,62.2298786 490.91546,50.2154511 L490.91546,37.2415924 C490.91546,25.229123 485.029644,17.1777335 473.015217,17.1777335 L473.015217,17.1777335 Z M214.775514,147.329463 C217.422229,147.543257 220.036321,146.63055 221.974789,144.815846 C223.913257,143.001142 224.996197,140.452858 224.957232,137.797808 L236.6153,137.797808 C236.468448,148.64917 228.477757,157.742228 214.912576,157.742228 C199.076088,157.742228 191.451547,147.770018 191.451547,134.426093 L191.451547,127.680705 C191.451547,114.33678 199.076088,104.366528 214.912576,104.366528 C228.477757,104.366528 236.468448,113.455669 236.6153,124.307031 L224.957232,124.307031 C224.996197,121.651982 223.913257,119.103697 221.974789,117.288993 C220.036321,115.474289 217.422229,114.561583 214.775514,114.775377 C207.149015,114.775377 204.069046,119.834908 204.069046,127.093298 L204.069046,135.011542 C204.069046,142.269932 207.158806,147.329463 214.775514,147.329463 Z M287.330046,105.390574 L298.915667,105.390574 L298.915667,156.714266 L286.819003,156.714266 L286.819003,129.587819 L278.751949,145.275497 L268.781697,145.275497 L260.791006,129.587819 L260.791006,156.714266 L248.692384,156.714266 L248.692384,105.390574 L260.276046,105.390574 L273.766823,133.325684 L287.330046,105.390574 Z M331.904434,157.742228 C319.586513,157.742228 311.302119,151.868159 311.302119,141.537632 L311.302119,140.143519 L323.398783,140.143519 L323.398783,141.173439 C323.398783,145.498712 326.18505,148.138126 331.976881,148.138126 C337.183263,148.138126 340.629383,146.011713 340.629383,142.052592 C340.83264,139.846561 339.292148,137.860181 337.104942,137.508021 L324.274019,134.281199 C316.281371,132.301638 312.175397,128.783071 312.175397,120.424272 C312.175397,110.232764 319.433787,104.368486 331.604857,104.368486 C343.116072,104.368486 350.448867,110.598914 350.448867,119.983717 L350.448867,121.230978 L338.796674,121.230978 L338.796674,120.351826 C338.796674,116.903747 336.88956,114.045034 331.610731,114.045034 C327.211054,114.045034 324.426745,115.58404 324.426745,119.249459 C324.258049,121.293116 325.699099,123.119016 327.726014,123.429837 L341.361684,127.095256 C349.573631,129.294115 352.8729,133.840644 352.8729,140.952183 C352.8729,151.216138 343.7818,157.742228 331.904434,157.742228 Z" fill="#FF7751"></path>
        </g>
    </g>
</svg>

<svg viewBox="0 0 512 158" xmlns="http://www.w3.org/2000/svg"><defs><linearGradient id="a" x1="0%" x2="100%" y1="49.999%" y2="49.999%"><stop offset="0%" stop-color="#FF593D"/><stop offset="100%" stop-color="#FF7751"/></linearGradient></defs><path fill="url(#a)" d="M77.03 1.65H-.01v155.06h77.03c38.52 0 77.03-34.72 77.03-77.53s-38.51-77.55-77.04-77.55Zm0 112.76c-19.46-.01-35.23-15.79-35.22-35.25 0-19.46 15.78-35.23 35.24-35.22 19.45 0 35.22 15.78 35.21 35.24 0 9.34-3.72 18.3-10.33 24.91 -6.62 6.6-15.58 10.31-24.93 10.3Z"/><path fill="#FF7751" d="M233.11 1.67c23.18 0 35.07 14.05 35.07 33.39v17.29c0 19.34-11.9 33.39-35.08 33.39h-36.77V1.64h36.76Zm14.41 33.28c0-10.7-5.65-16.34-18.15-16.34h-12.5v50.2h12.49c12.49 0 18.14-5.65 18.14-16.34V34.93Zm84.66 35.19h-30.4l-4.69 15.61h-20.67l30.03-84.11h21.14l30.03 84.09h-20.67l-4.81-15.62Zm-25.35-16.58h20.3l-10.1-33.28 -10.22 33.27ZM422.98 1.65v17.42h-22.72v66.67H379.6V19.06h-22.72V1.63h66.08Zm50.01 85.77c-25.47 0-38.57-16.34-38.57-38.33V38.27c0-21.99 13.09-38.33 38.56-38.33 25.46 0 38.57 16.33 38.57 38.32v10.81c-.01 21.98-13.11 38.32-38.58 38.32v0Zm0-70.29c-12.02-.001-17.91 8.05-17.91 20.06v12.97c0 12.01 5.88 20.06 17.9 20.06 12.01 0 17.9-8.05 17.9-20.07V37.17c0-12.02-5.89-20.07-17.91-20.07v0ZM214.75 147.28c2.64.21 5.26-.7 7.19-2.52 1.93-1.82 3.02-4.37 2.98-7.02h11.65c-.15 10.85-8.14 19.94-21.71 19.94 -15.84 0-23.47-9.98-23.47-23.32v-6.75c0-13.35 7.62-23.32 23.46-23.32 13.56 0 21.55 9.08 21.7 19.94h-11.66c.03-2.66-1.05-5.21-2.99-7.02 -1.94-1.82-4.56-2.73-7.2-2.52 -7.63 0-10.71 5.05-10.71 12.31v7.91c0 7.25 3.08 12.31 10.7 12.31Zm72.55-41.94h11.58v51.32h-12.1v-27.13l-8.07 15.68h-9.98l-8-15.69v27.12h-12.1v-51.33h11.58l13.49 27.93 13.56-27.94Zm44.57 52.35c-12.32 0-20.61-5.88-20.61-16.21v-1.4h12.09v1.02c0 4.32 2.78 6.96 8.57 6.96 5.2 0 8.65-2.13 8.65-6.09 .2-2.21-1.34-4.2-3.53-4.55l-12.84-3.23c-8-1.98-12.1-5.5-12.1-13.86 0-10.2 7.25-16.06 19.42-16.06 11.51 0 18.84 6.23 18.84 15.61v1.24H338.7v-.88c0-3.45-1.91-6.31-7.19-6.31 -4.4 0-7.19 1.53-7.19 5.2 -.17 2.04 1.27 3.86 3.29 4.18l13.63 3.66c8.21 2.19 11.51 6.74 11.51 13.85 0 10.26-9.1 16.79-20.97 16.79Z"/></svg>
